icon-themes/sifr_svg/cmd/sc_crookslant.svg

<svg viewBox="0 0 16 16" xmlns="http://www.w3.org/2000/svg"><path d="m0 .01367188v1.02148432 11.9648438c5.7679676 0 12.274301 1 16 3.001953v-13.001953c-4-2-11.1394587-2.9828405-16-2.98632812zm2 1.98632812c4.534709.2032029 8.745001.3700168 12 2v9c-3.02241-1.212387-6.7515847-1.808993-12-2zm4 3-2 2 2 2v-1h4v1l2-2-2-2v1h-4z" fill="#555753"/></svg>

<svg xmlns="http://www.w3.org/2000/svg" viewBox="0 0 16 16">
 <path
   style="fill:#555753"
   d="M 0 0.013671875 L 0 1.0351562 L 0 13 C 5.7679676 13 12.274301 14 16 16.001953 L 16 3 C 12 1 4.8605413 0.017159495 0 0.013671875 z M 2 2 C 6.534709 2.2032029 10.745001 2.3700168 14 4 L 14 13 C 10.97759 11.787613 7.2484153 11.191007 2 11 L 2 2 z M 6 5 L 4 7 L 6 9 L 6 8 L 10 8 L 10 9 L 12 7 L 10 5 L 10 6 L 6 6 L 6 5 z "
   />
</svg>
